X:159
T: Die Rabenmutter
N: Q0114Z
O: Osteuropa, Ungarn
R: Ballade, Kinds - Mord, Strafe
M: 3/2
L: 1/8
K: G
D2D2F2 | G6D2B,2D2 | E4D2
G2B2B2 | A6G2F2E2 | E4D2
D2D2G2 | B6ABc2Bd | A6
G2F2EE | D6D2E2F2 | G6

